X:1
T:Title
%%score { 1 | 2 }
L:1/8
M:4/4
K:G
V:1 treble nm="Grand Piano"
V:2 bass 
V:1
 z4 z2 z[Q:1/4=100] D | D>G G>A Bc B>[DA] | [EG]2 [CE]2 [B,D]3 [B,D] | D>A A>B AA G>A | %4
 B2 A2 A3 [Fd] | d>d d>e dd [DB]>[DA] |[M:7/8] [EG]2 [CE]2 [Ec]3 |[M:1/8] [CE] | %8
[M:4/4] [B,D]>[B,D] [B,D]>[CE] [B,D]<[B,G] [DG]>[EA] |[M:7/8] [DB]2 [CDFA]2 [B,DG]3 |[M:1/8] d | %11
[M:4/4] d>d d>e d<d B>c | d2 e2 d3 B | B>B B>c B<B G>A | B2 [DGd]2 [DFA]3 [Fd] | %15
 d>d d>e dd [DB]>[DA] |[M:7/8] [EG]2 [CE]2 [Ec]3 |[M:1/8] [CE] | %18
[M:4/4] [B,D]>[B,D] [B,D]>[CE] [B,D]<[B,G] [DG]>[EA] | %19
[M:15/8] [DB]2 [CDFA]-[CDFA] [B,DG]2- [B,DG] z2 z6 |] %20
V:2
 z4 z2 z [G,B,] | [G,B,]>[G,B,D] [G,B,D]>[G,CD][K:treble] [G,DG][G,EG] [G,DG]>[K:bass][B,,G,] | %2
 [C,G,]2 [C,G,]2 [G,,G,]3 [G,,G,] | [D,F,]>[D,F,D] [D,F,D]>[D,G,D] [D,F,D][D,CD] [D,B,D]>[D,F,D] | %4
 [G,D]2 [D,F,D]2 [D,F,D]3 [D,C] | %5
 [G,B,G]>[G,B,G] [G,B,G]>[G,CG] [G,B,G][G,B,G][K:bass] [B,,G,]>[B,,G,] | %6
[M:7/8] [C,G,]2 [C,G,]2 [C,G,]3 |[M:1/8] [C,G,] | %8
[M:4/4] [G,,G,]>[G,,G,] [G,,G,]>[G,,G,] [G,,G,]<[G,,G,] [B,,G,]>[C,G,] |[M:7/8] [D,G,]2 D,2 G,,3 | %10
[M:1/8][K:treble] [G,B,G] |[M:4/4] [G,B,G]>[G,B,G] [G,B,G]>[G,CG] [G,B,G]<[G,B,G] [G,DG]>[G,DG] | %12
 [G,B,G]2 [G,CG]2 [G,B,G]3 [G,DG] | [G,DG]>[G,DG] [G,DG]>[G,DG] [G,DG]<[G,DG] [G,B,D]>[G,CD] | %14
 [G,DG]2[K:bass] B,,2 D,3 [D,C] | %15
 [G,B,G]>[G,B,G] [G,B,G]>[G,CG] [G,B,G][G,B,G][K:bass] [B,,G,]>[B,,G,] | %16
[M:7/8] [C,G,]2 [C,G,]2 [C,G,]3 |[M:1/8] [C,G,] | %18
[M:4/4] [G,,G,]>[G,,G,] [G,,G,]>[G,,G,] [G,,G,]<[G,,G,] [B,,G,]>[C,G,] | %19
[M:15/8] [D,G,]2 D,-D, G,,2- G,, z2 z6 |] %20

